X: 30381
T: Old Red Petticoat, The
R: jig
M: 6/8
K: Dmajor
|:c|d2 d dcB|A2 G FF/G/A|dcd dB/c/d|e2 c A2 e|
f2 f fed|g2 G B2 g|fed ABc|d3- d2:|
f|ecA ecA|e2 c AA/B/c|dcB A^GA|B2 ^G E3|
ecA e2 A|e2 c ABc|dcB EF^G|A3- A2 c|
dFc dcB|A2 G F2 A|d2 d dcd|ecB Ace|
fa/e/f fed|g2 g B2 g|fed ABc|d3- d2||

